src/Svgs/equinix.svg

<svg fill="none" height="213" viewBox="0 0 440 213" width="440" xmlns="http://www.w3.org/2000/svg" xmlns:xlink="http://www.w3.org/1999/xlink"><clipPath id="a"><path d="m0 0h439.2v212.3h-439.2z"/></clipPath><g clip-path="url(#a)" fill="#a0aec0"><path d="m302.1 28.78v53.29l-12.18 4.188v-61.67l-36.54-12.81v87.3l-12.06 4.188v-95.68001l-18.27-6.471-18.27 6.471v95.68001l-12.18-4.188v-87.3l-36.42 12.81v61.67l-12.18-4.188v-53.29l-12.18 4.188v57.73l36.42 12.69v-70.17l12.18-4.313v78.8l36.54 12.69v-104.2l6.094-2.158 6.09 2.158v104.2l36.42-12.69v-78.8l12.18 4.313v70.17l36.54-12.69v-57.73z"/><path d="m6.598 188.6h21.57v-5.837h-21.57v-12.69h32.23v-5.964h-38.8299989v44.79h39.9699989v-5.71h-33.37z"/><path d="m177.4 191.1c0 7.994-5.328 13.32-13.2 13.32-7.615 0-12.44-5.457-12.44-13.32v-26.9h-6.471v27.15c0 12.18 8.882 18.91 18.91 18.91 14.72 0 19.54-10.15 19.54-18.91v-27.15h-6.343z"/><path d="m219.9 208.9h6.345v-44.79h-6.345z"/><path d="m303 199.2-31.72-35.15h-6.347v44.79h6.347v-35.28l31.85 35.28h6.343v-44.79h-6.471z"/><path d="m348.5 208.9h6.472v-44.79h-6.472z"/><path d="m417.4 184.6 18.65-20.56h-7.867l-14.85 16.12-14.34-16.12h-8.501l18.02 20.56-22.46 24.24h8.249l18.4-19.92 17.64 19.92h8.882z"/><path d="m106.1 186.5c0 6.345-2.158 10.41-5.837 13.96-3.426-4.061-3.426-4.061-3.426-4.061h-7.486c6.09 6.979 6.09 6.979 6.09 6.979-1.52.761-4.189 1.269-6.343 1.396-9.516 0-17.13-7.74-17.13-18.27v-.127c0-10.79 7.105-18.27 16.75-18.4 9.645 0 17.38 7.615 17.38 18.27zm-17.26-24.24c-13.33.128-23.61 10.15-23.61 24.36v.127c0 13.96 10.54 23.86 23.73 23.73 3.426 0 7.486-.889 10.53-2.411l3.555 4.187h7.486l-6.343-7.36c5.204-3.934 8.501-10.53 8.501-18.65v-.127c0-13.96-10.53-23.98-23.85-23.86"/><path d="m335.9 78.12v-3.169h2.287c1.268 0 2.03.6338 2.03 1.649 0 .8865-.762 1.52-2.03 1.52zm-2.788 5.837h2.788v-3.55h1.653c2.535 3.55 2.535 3.55 2.535 3.55h3.302c-2.921-4.06-2.921-4.06-2.921-4.06 1.525-.5054 2.54-1.649 2.54-3.55 0-2.54-1.906-3.807-4.57-3.807h-5.328zm4.441 4.441c-5.456 0-9.645-4.441-9.645-9.769v-.1285c0-5.328 4.188-9.769 9.645-9.769 5.58 0 9.769 4.313 9.769 9.769 0 5.332-4.189 9.897-9.769 9.897zm0 1.1425c6.214 0 11.04-5.075 11.04-11.04 0-6.09-4.822-11.04-11.04-11.04-6.094 0-10.92 5.075-10.92 11.04v.1285c0 5.966 4.822 10.91 10.92 10.91"/></g></svg>

<svg width="440" height="213" viewBox="0 0 440 213" fill="none" xmlns="http://www.w3.org/2000/svg">
<g clip-path="url(#clip0)">
<path d="M302.1 28.78V82.07L289.92 86.258V24.588L253.38 11.778V99.078L241.32 103.266V7.58599L223.05 1.11499L204.78 7.58599V103.266L192.6 99.078V11.778L156.18 24.588V86.258L144 82.07V28.78L131.82 32.968V90.698L168.24 103.388V33.218L180.42 28.905V107.705L216.96 120.395V16.195L223.054 14.037L229.144 16.195V120.395L265.564 107.705V28.905L277.744 33.218V103.388L314.284 90.698V32.968L302.1 28.78Z" fill="#A0AEC0"/>
<path d="M6.598 188.6H28.168V182.763H6.598V170.073H38.828V164.109H-0.0019989V208.899H39.968V203.189H6.598V188.6Z" fill="#A0AEC0"/>
<path d="M177.4 191.1C177.4 199.094 172.072 204.42 164.2 204.42C156.585 204.42 151.76 198.963 151.76 191.1V164.2H145.289V191.35C145.289 203.53 154.171 210.26 164.199 210.26C178.919 210.26 183.739 200.11 183.739 191.35V164.2H177.396L177.4 191.1Z" fill="#A0AEC0"/>
<path d="M219.9 208.9H226.245V164.11H219.9V208.9Z" fill="#A0AEC0"/>
<path d="M303 199.2L271.28 164.05H264.933V208.84H271.28V173.56L303.13 208.84H309.473V164.05H303.002L303 199.2Z" fill="#A0AEC0"/>
<path d="M348.5 208.9H354.972V164.11H348.5V208.9Z" fill="#A0AEC0"/>
<path d="M417.4 184.6L436.05 164.04H428.183L413.333 180.16L398.993 164.04H390.492L408.512 184.6L386.052 208.84H394.301L412.701 188.92L430.341 208.84H439.223L417.4 184.6Z" fill="#A0AEC0"/>
<path d="M106.1 186.5C106.1 192.845 103.942 196.91 100.263 200.46C96.837 196.399 96.837 196.399 96.837 196.399H89.351C95.441 203.378 95.441 203.378 95.441 203.378C93.921 204.139 91.252 204.647 89.098 204.774C79.582 204.774 71.968 197.034 71.968 186.504V186.377C71.968 175.587 79.073 168.107 88.718 167.977C98.363 167.977 106.098 175.592 106.098 186.247L106.1 186.5ZM88.84 162.26C75.51 162.388 65.23 172.41 65.23 186.62V186.747C65.23 200.707 75.77 210.607 88.96 210.477C92.386 210.477 96.446 209.588 99.49 208.066L103.045 212.253H110.531L104.188 204.893C109.392 200.959 112.689 194.363 112.689 186.243V186.116C112.689 172.156 102.159 162.136 88.839 162.256" fill="#A0AEC0"/>
<path d="M335.9 78.12V74.951H338.187C339.455 74.951 340.217 75.5848 340.217 76.6C340.217 77.4865 339.455 78.12 338.187 78.12H335.9ZM333.112 83.957H335.9V80.407H337.553C340.088 83.957 340.088 83.957 340.088 83.957H343.39C340.469 79.897 340.469 79.897 340.469 79.897C341.994 79.3916 343.009 78.248 343.009 76.347C343.009 73.807 341.103 72.54 338.439 72.54H333.111L333.112 83.957ZM337.553 88.398C332.097 88.398 327.908 83.957 327.908 78.629V78.5005C327.908 73.1725 332.096 68.7315 337.553 68.7315C343.133 68.7315 347.322 73.0445 347.322 78.5005C347.322 83.8325 343.133 88.3975 337.553 88.3975V88.398ZM337.553 89.5405C343.767 89.5405 348.593 84.4655 348.593 78.5005C348.593 72.4105 343.771 67.4605 337.553 67.4605C331.459 67.4605 326.633 72.5355 326.633 78.5005V78.629C326.633 84.595 331.455 89.539 337.553 89.539" fill="#A0AEC0"/>
</g>
<defs>
<clipPath id="clip0">
<rect width="439.2" height="212.3" fill="white"/>
</clipPath>
</defs>
</svg>
